X:353
T:Ay Sarica Bre
Z:Jack Campin, http://www.campin.me.uk/
F:Jack Campin's Nine-Note Tunebook
% last edit 03-02-2013
N:Sephardic song from Monastir
M:4/4
L:1/8
Q:1/4=108
K:EPhr
 AA`^GF  E4        |^GA/A/ BA     B2 B2  ::\
 c3   c (BA/B/ A^G)|
                     BA  (^G/F/)E G2 G2   |\
 BA`^GF  E2    B2  |^GA    G/G/F  E4     :|
^GA``GF  E3      E |^GA````BA     B2 B2  :|
 c3   c (BA/B/ A^G)| BA  (^G/F/)E G3  G/A/|\
                     BA```^GF     E4     :|


% == Klezmer tunes ==========================================================

